src/logo.svg

<?xml version="1.0" encoding="UTF-8"?>
<svg version="1.1" viewBox="0 0 292 136" xmlns="http://www.w3.org/2000/svg">
<title>reversed-logo</title>
<desc>Created with Sketch.</desc>
<g fill="none" fill-rule="evenodd">
<g transform="translate(16 13)">
<path d="m26.732 89.591v19.773l30.431-18.892-15.842-9.833-14.589 8.952" fill="#4A9FC2"/>
<path d="m42.975 29.921h-2e-3l-16.241 9.951 40.657 24.77-10.051 6.167 8e-3 2.322-1.899-1.161-1.653 1.014 3.559 2.182 8e-3 2.383-5.531-3.36-1.599 0.982 7.136 4.336 9e-3 2.518-9.203-5.591-1.577 0.968 10.786 6.579 8e-3 2.424-12.77-7.791-1.54 0.946 14.317 8.733 6e-3 2.032 25.888-16.072v-19.038l-40.316-25.294" fill="#4A9FC2"/>
<path d="m27.128 19.98 15.845 9.941 14.43-8.79v-20.143l-30.275 18.992" fill="#fff"/>
<path d="m26.732 39.818v-2.445l2.044 1.247 1.6-0.98-3.644-2.214v-2.513l5.703 3.465 1.602-0.981-7.305-4.438v-2.388l9.22 5.652 1.668-1.022-10.888-6.659v-2.46l12.924 7.872 1.592-0.976-14.516-8.936v-1.812l-25.885 16.241v19.04l40.474 25.128 16.017-9.83-40.594-24.911 9.988-6.08" fill="#fff"/>
<path d="m103.46 68.788 4.094-6.396c2.898 2.985 8.612 5.714 13.899 5.714 5.373 0 8.188-2.218 8.188-5.458 0-8.102-24.902-2.302-24.902-18.164 0-6.737 5.799-12.451 16.203-12.451 6.992 0 12.28 2.473 15.947 5.714l-3.752 6.31c-2.473-2.728-6.993-4.946-12.195-4.946-4.69 0-7.59 2.218-7.59 5.117 0 7.248 24.901 1.791 24.901 18.164 0 7.334-6.054 12.877-17.14 12.877-7.079 0-13.389-2.303-17.653-6.481" fill="#fff"/>
<path d="m154.45 68.532v21.405h-8.954v-56.88h8.954v5.628c3.071-4.093 7.846-6.652 13.219-6.652 10.659 0 18.249 8.017 18.249 21.576 0 13.558-7.59 21.66-18.249 21.66-5.202 0-9.807-2.388-13.219-6.737zm22.258-14.923c0-8.017-4.605-13.645-11.683-13.645-4.179 0-8.528 2.388-10.575 5.458v16.288c1.962 3.07 6.396 5.628 10.575 5.628 7.078 0 11.683-5.713 11.683-13.729z" fill="#fff"/>
<path d="m194.22 17.366h8.954v56.88h-8.954v-56.88z" fill="#fff"/>
<path d="m212.89 22.482c0-3.07 1.597-5.543 4.667-5.543s5.543 2.473 5.543 5.543-2.473 5.543-5.543 5.543-4.667-2.473-4.667-5.543zm0.147 10.575h8.954v41.189h-8.954v-41.189z" fill="#fff"/>
<path d="m235.47 64.609v-23.792h-6.822v-7.76h6.822v-11.257h8.954v11.257h8.358v7.76h-8.358v21.575c0 2.814 1.365 4.946 3.923 4.946 1.706 0 3.241-0.767 3.923-1.535l2.132 6.822c-1.62 1.45-4.264 2.644-8.358 2.644-6.992 0-10.574-3.752-10.574-10.66" fill="#fff"/>
</g>
</g>
</svg>

<?xml version="1.0" encoding="UTF-8" standalone="no"?>
<svg width="292px" height="136px" viewBox="0 0 292 136" version="1.1" xmlns="http://www.w3.org/2000/svg" xmlns:xlink="http://www.w3.org/1999/xlink" xmlns:sketch="http://www.bohemiancoding.com/sketch/ns">
    <!-- Generator: Sketch 3.3.3 (12072) - http://www.bohemiancoding.com/sketch -->
    <title>reversed-logo</title>
    <desc>Created with Sketch.</desc>
    <defs></defs>
    <g id="Page-1" stroke="none" stroke-width="1" fill="none" fill-rule="evenodd" sketch:type="MSPage">
        <g id="reversed-logo" sketch:type="MSArtboardGroup">
            <g id="Group" sketch:type="MSLayerGroup" transform="translate(16.000000, 13.000000)">
                <path d="M26.732,89.591 L26.732,109.364 L57.163,90.472 L41.321,80.639 L26.732,89.591" id="Fill-26" fill="#4A9FC2" sketch:type="MSShapeGroup"></path>
                <path d="M42.975,29.921 L42.973,29.921 L26.732,39.872 L67.389,64.642 L57.338,70.809 L57.346,73.131 L55.447,71.97 L53.794,72.984 L57.353,75.166 L57.361,77.549 L51.83,74.189 L50.231,75.171 L57.367,79.507 L57.376,82.025 L48.173,76.434 L46.596,77.402 L57.382,83.981 L57.39,86.405 L44.62,78.614 L43.08,79.56 L57.397,88.293 L57.403,90.325 L83.291,74.253 L83.291,55.215 L42.975,29.921" id="Fill-27" fill="#4A9FC2" sketch:type="MSShapeGroup"></path>
                <path d="M27.128,19.98 L42.973,29.921 L57.403,21.131 L57.403,0.988 L27.128,19.98" id="Fill-28" fill="#FFFFFF" sketch:type="MSShapeGroup"></path>
                <path d="M26.732,39.818 L26.732,37.373 L28.776,38.62 L30.376,37.64 L26.732,35.426 L26.732,32.913 L32.435,36.378 L34.037,35.397 L26.732,30.959 L26.732,28.571 L35.952,34.223 L37.62,33.201 L26.732,26.542 L26.732,24.082 L39.656,31.954 L41.248,30.978 L26.732,22.042 L26.732,20.23 L0.847,36.471 L0.847,55.511 L41.321,80.639 L57.338,70.809 L16.744,45.898 L26.732,39.818" id="Fill-29" fill="#FFFFFF" sketch:type="MSShapeGroup"></path>
                <path d="M103.462,68.788 L107.556,62.392 C110.454,65.377 116.168,68.106 121.455,68.106 C126.828,68.106 129.643,65.888 129.643,62.648 C129.643,54.546 104.741,60.346 104.741,44.484 C104.741,37.747 110.54,32.033 120.944,32.033 C127.936,32.033 133.224,34.506 136.891,37.747 L133.139,44.057 C130.666,41.329 126.146,39.111 120.944,39.111 C116.254,39.111 113.354,41.329 113.354,44.228 C113.354,51.476 138.255,46.019 138.255,62.392 C138.255,69.726 132.201,75.269 121.115,75.269 C114.036,75.269 107.726,72.966 103.462,68.788" id="Fill-30" fill="#FFFFFF" sketch:type="MSShapeGroup"></path>
                <path d="M154.454,68.532 L154.454,89.937 L145.5,89.937 L145.5,33.057 L154.454,33.057 L154.454,38.685 C157.525,34.592 162.3,32.033 167.673,32.033 C178.332,32.033 185.922,40.05 185.922,53.609 C185.922,67.167 178.332,75.269 167.673,75.269 C162.471,75.269 157.866,72.881 154.454,68.532 L154.454,68.532 Z M176.712,53.609 C176.712,45.592 172.107,39.964 165.029,39.964 C160.85,39.964 156.501,42.352 154.454,45.422 L154.454,61.71 C156.416,64.78 160.85,67.338 165.029,67.338 C172.107,67.338 176.712,61.625 176.712,53.609 L176.712,53.609 Z" id="Fill-31" fill="#FFFFFF" sketch:type="MSShapeGroup"></path>
                <path d="M194.218,17.366 L203.172,17.366 L203.172,74.246 L194.218,74.246 L194.218,17.366 Z" id="Fill-32" fill="#FFFFFF" sketch:type="MSShapeGroup"></path>
                <path d="M212.893,22.482 C212.893,19.412 214.49,16.939 217.56,16.939 C220.63,16.939 223.103,19.412 223.103,22.482 C223.103,25.552 220.63,28.025 217.56,28.025 C214.49,28.025 212.893,25.552 212.893,22.482 L212.893,22.482 Z M213.04,33.057 L221.994,33.057 L221.994,74.246 L213.04,74.246 L213.04,33.057 Z" id="Fill-33" fill="#FFFFFF" sketch:type="MSShapeGroup"></path>
                <path d="M235.467,64.609 L235.467,40.817 L228.645,40.817 L228.645,33.057 L235.467,33.057 L235.467,21.8 L244.421,21.8 L244.421,33.057 L252.779,33.057 L252.779,40.817 L244.421,40.817 L244.421,62.392 C244.421,65.206 245.786,67.338 248.344,67.338 C250.05,67.338 251.585,66.571 252.267,65.803 L254.399,72.625 C252.779,74.075 250.135,75.269 246.041,75.269 C239.049,75.269 235.467,71.517 235.467,64.609" id="Fill-34" fill="#FFFFFF" sketch:type="MSShapeGroup"></path>
            </g>
        </g>
    </g>
</svg>
